src/game/GamePart/Arena/Resources/img/Bomb.svg

<svg width="56" height="56" viewBox="0 0 56 56" fill="none" xmlns="http://www.w3.org/2000/svg">
<g clip-path="url(#clip0)">
<path d="M31.1146 26.9858V25.3571C31.1146 23.6663 29.739 22.2908 28.0483 22.2908H27.0611V18.6596C27.0611 17.9753 27.6178 17.4186 28.302 17.4186H33.434C35.9276 17.4186 37.9562 15.3899 37.9562 12.8964V9.72351C37.9562 8.81745 37.2217 8.08289 36.3156 8.08289C35.4096 8.08289 34.675 8.81745 34.675 9.72351V12.8964C34.675 13.5806 34.1183 14.1373 33.434 14.1373H28.302C25.8085 14.1373 23.7798 16.166 23.7798 18.6596V22.2908H22.7926C21.1019 22.2908 19.7263 23.6663 19.7263 25.3571V26.9858C17.1849 28.0199 14.9902 29.7191 13.3295 31.9503C11.3851 34.5625 10.357 37.6689 10.3564 40.934C10.3559 44.9533 11.9046 48.7275 14.7177 51.5613C17.5309 54.3953 21.2936 55.9716 25.3126 55.9999C25.3491 56.0001 25.3851 56.0002 25.4215 56.0002C29.4256 56.0001 33.1913 54.449 36.0345 51.6256C38.904 48.7762 40.4843 44.98 40.4843 40.9364C40.4843 37.671 39.4565 34.5639 37.512 31.9512C35.851 29.7194 33.6565 28.0201 31.1146 26.9858ZM25.3356 52.7185C18.775 52.6726 13.6367 47.4964 13.6377 40.9343C13.6386 35.7713 16.9436 31.2568 21.8617 29.7006C22.5438 29.4848 23.0074 28.8519 23.0074 28.1365V25.5721H27.8333V28.1365C27.8333 28.8519 28.2969 29.4848 28.979 29.7006C33.898 31.257 37.203 35.7724 37.203 40.9363C37.203 44.0992 35.9669 47.0684 33.7224 49.2972C31.4783 51.5257 28.5026 52.7383 25.3356 52.7185Z" fill="#ffffff"/>
<path d="M36.3154 6.16744C37.2215 6.16744 37.9561 5.43288 37.9561 4.52681V1.64062C37.9561 0.734562 37.2215 0 36.3154 0C35.4094 0 34.6748 0.734562 34.6748 1.64062V4.52681C34.6748 5.43288 35.4094 6.16744 36.3154 6.16744Z" fill="#ffffff"/>
<path d="M29.5086 8.02604C29.829 8.3464 30.2488 8.50663 30.6686 8.50663C31.0884 8.50663 31.5084 8.3464 31.8288 8.02604C32.4694 7.38532 32.4694 6.34659 31.8288 5.70587L29.7879 3.66515C29.1473 3.02454 28.1085 3.02454 27.4678 3.66515C26.8272 4.30587 26.8272 5.3446 27.4678 5.98532L29.5086 8.02604Z" fill="#ffffff"/>
<path d="M45.1638 3.66511C44.5232 3.02439 43.4843 3.02439 42.8436 3.66511L40.8028 5.70583C40.1621 6.34644 40.1621 7.38517 40.8028 8.026C41.1233 8.34647 41.5431 8.50659 41.9629 8.50659C42.3827 8.50659 42.8027 8.34636 43.123 8.026L45.1638 5.98528C45.8044 5.34456 45.8044 4.30583 45.1638 3.66511Z" fill="#ffffff"/>
</g>
<defs>
<clipPath id="clip0">
<rect width="56" height="56" fill="white"/>
</clipPath>
</defs>
</svg>

<svg width="56" height="56" fill="none" xmlns="http://www.w3.org/2000/svg"><g clip-path="url(#clip0)" fill="#fff"><path d="M31.115 26.986v-1.629a3.07 3.07 0 0 0-3.067-3.066h-.987V18.66c0-.685.557-1.241 1.241-1.241h5.132a4.527 4.527 0 0 0 4.522-4.523V9.724a1.64 1.64 0 1 0-3.281 0v3.172c0 .685-.557 1.241-1.241 1.241h-5.132a4.527 4.527 0 0 0-4.522 4.523v3.63h-.987a3.07 3.07 0 0 0-3.067 3.067v1.629a14.989 14.989 0 0 0-6.396 4.964 14.941 14.941 0 0 0-2.974 8.984c0 4.02 1.549 7.794 4.362 10.627 2.813 2.834 6.576 4.41 10.595 4.439h.109c4.004 0 7.77-1.551 10.613-4.374a14.96 14.96 0 0 0 4.45-10.69 14.94 14.94 0 0 0-2.973-8.985 14.988 14.988 0 0 0-6.397-4.965zm-5.78 25.732c-6.56-.045-11.698-5.222-11.697-11.784 0-5.163 3.306-9.677 8.224-11.233a1.64 1.64 0 0 0 1.145-1.564v-2.565h4.826v2.565A1.64 1.64 0 0 0 28.98 29.7a11.738 11.738 0 0 1 8.224 11.235c0 3.163-1.236 6.132-3.48 8.361a11.708 11.708 0 0 1-8.387 3.422zM36.315 6.167a1.64 1.64 0 0 0 1.641-1.64V1.64a1.64 1.64 0 0 0-3.281 0v2.886c0 .906.734 1.64 1.64 1.64zM29.509 8.026c.32.32.74.48 1.16.48a1.64 1.64 0 0 0 1.16-2.8l-2.041-2.04a1.64 1.64 0 0 0-2.32 2.32l2.04 2.04zM45.164 3.665a1.64 1.64 0 0 0-2.32 0l-2.041 2.04a1.64 1.64 0 1 0 2.32 2.321l2.04-2.04c.641-.641.641-1.68 0-2.32z"/></g><defs><clipPath id="clip0"><path fill="#fff" d="M0 0h56v56H0z"/></clipPath></defs></svg>
